exports/world-health-expenditure-as-share-of-global-gdp_v1_850x600.svg

<svg xmlns="http://www.w3.org/2000/svg" version="1.1" style="background-color:#fff;-webkit-font-smoothing:antialiased" width="850" height="600" font-family="'Helvetica Neue',Helvetica,Arial,sans-serif" font-size="18" text-rendering="optimizeLegibility"><g class="ChartTab"><g class="HeaderView"><g opacity=".8" transform="matrix(.31 0 0 .31 770 15)"><a xmlns:xlink="http://www.w3.org/1999/xlink" xlink:href="https://ourworldindata.org" target="_blank"><g><path fill="#1B2543" d="M0 0h211.2v130.1H0z"/><path fill="#E63912" d="M0 112.2h211.2v17.9H0z"/><g><path fill="none" d="M1.2 12.3h210.2v99.2H1.2z"/><path fill="#FFF" d="M37.8 32.2c0 12.7-7.7 19.4-17.1 19.4-9.7 0-16.6-7.5-16.6-18.7 0-11.7 7.3-19.3 17.1-19.3 10.1.1 16.6 7.7 16.6 18.6zm-28.6.6c0 7.9 4.3 14.9 11.8 14.9 7.5 0 11.8-6.9 11.8-15.3 0-7.3-3.8-14.9-11.8-14.9-7.9 0-11.8 7.3-11.8 15.3zM62.7 43.8c0 2.7.1 5.1.2 7.2h-4.3l-.3-4.3h-.1c-1.3 2.1-4 4.9-8.8 4.9-4.2 0-9.1-2.3-9.1-11.6V24.6h4.8v14.6c0 5 1.5 8.4 5.9 8.4 3.2 0 5.5-2.2 6.3-4.4.3-.7.4-1.6.4-2.5V24.6h4.8v19.2zM67.3 32.8c0-3.1-.1-5.8-.2-8.2h4.2l.2 5.2h.2c1.2-3.5 4.1-5.8 7.3-5.8.5 0 .9.1 1.4.2v4.5c-.5-.1-1-.2-1.6-.2-3.4 0-5.8 2.6-6.5 6.2-.1.7-.2 1.4-.2 2.2V51h-4.8V32.8zM95.4 51L86 14.2h5l4.4 18.6c1.1 4.6 2.1 9.2 2.7 12.7h.1c.6-3.7 1.8-8 3-12.8l4.9-18.5h5l4.5 18.7c1 4.4 2 8.7 2.6 12.6h.1c.8-4 1.8-8.1 3-12.7l4.9-18.5h4.9L120.6 51h-5L111 31.9c-1.1-4.7-1.9-8.3-2.4-12h-.1c-.7 3.7-1.5 7.3-2.8 12L100.4 51h-5zM154.9 37.6c0 9.8-6.8 14-13.2 14-7.2 0-12.7-5.2-12.7-13.6 0-8.8 5.8-14 13.1-14 7.7 0 12.8 5.5 12.8 13.6zm-21 .3c0 5.8 3.3 10.1 8 10.1 4.6 0 8-4.3 8-10.3 0-4.5-2.2-10.1-7.9-10.1s-8.1 5.2-8.1 10.3zM158.2 32.8c0-3.1-.1-5.8-.2-8.2h4.2l.2 5.2h.2c1.2-3.5 4.1-5.8 7.3-5.8.5 0 .9.1 1.4.2v4.5c-.5-.1-1-.2-1.6-.2-3.4 0-5.8 2.6-6.5 6.2-.1.7-.2 1.4-.2 2.2V51h-4.8V32.8zM173.5 12.3h4.8V51h-4.8V12.3zM206.5 12.3v31.9c0 2.3.1 5 .2 6.8h-4.3l-.2-4.6h-.2c-1.5 2.9-4.7 5.2-9 5.2-6.4 0-11.3-5.4-11.3-13.4-.1-8.8 5.4-14.2 11.9-14.2 4 0 6.8 1.9 8 4h.1V12.3h4.8zm-4.8 23.1c0-.6-.1-1.4-.2-2a7 7 0 00-6.9-5.6c-5 0-7.9 4.4-7.9 10.2 0 5.3 2.6 9.8 7.8 9.8 3.2 0 6.2-2.1 7.1-5.7.2-.7.2-1.3.2-2.1v-4.6zM42.8 64c.1 1.6-1.1 2.9-3.1 2.9-1.7 0-2.9-1.3-2.9-2.9 0-1.7 1.3-3 3-3 1.9 0 3 1.3 3 3zm-5.4 33.8V71.4h4.8v26.4h-4.8zM47.5 78.6c0-2.7-.1-5-.2-7.1h4.3l.3 4.4h.1c1.3-2.5 4.4-5 8.8-5 3.7 0 9.4 2.2 9.4 11.2v15.8h-4.8V82.6c0-4.3-1.6-7.8-6.1-7.8-3.2 0-5.6 2.2-6.5 4.9-.2.6-.3 1.4-.3 2.2v15.9h-4.8V78.6zM84 61.6c2.9-.4 6.3-.8 10.1-.8 6.8 0 11.7 1.6 14.9 4.6 3.3 3 5.2 7.3 5.2 13.2 0 6-1.9 10.9-5.3 14.3-3.4 3.4-9.1 5.3-16.3 5.3-3.4 0-6.2-.2-8.6-.4V61.6zm4.8 32.5c1.2.2 3 .3 4.8.3 10.2 0 15.7-5.7 15.7-15.6.1-8.7-4.9-14.2-14.9-14.2-2.5 0-4.3.2-5.6.5v29zM132.1 97.8l-.4-3.3h-.2a9.79 9.79 0 01-8.1 3.9c-5.4 0-8.1-3.8-8.1-7.6 0-6.4 5.7-9.9 15.9-9.8v-.5c0-2.2-.6-6.1-6-6.1-2.5 0-5 .8-6.9 2l-1.1-3.2c2.2-1.4 5.4-2.3 8.7-2.3 8.1 0 10.1 5.5 10.1 10.8v9.9c0 2.3.1 4.5.4 6.3h-4.3zm-.7-13.4c-5.3-.1-11.2.8-11.2 5.9 0 3.1 2.1 4.6 4.5 4.6 3.4 0 5.6-2.2 6.4-4.4.2-.5.3-1 .3-1.5v-4.6zM146.6 63.9v7.6h6.9v3.7h-6.9v14.2c0 3.3.9 5.1 3.6 5.1 1.3 0 2.2-.2 2.8-.3l.2 3.6c-.9.4-2.4.7-4.3.7-2.2 0-4-.7-5.2-2-1.4-1.4-1.9-3.8-1.9-6.9V75.1h-4.1v-3.7h4.1v-6.3l4.8-1.2zM171.4 97.8l-.4-3.3h-.2a9.79 9.79 0 01-8.1 3.9c-5.4 0-8.1-3.8-8.1-7.6 0-6.4 5.7-9.9 15.9-9.8v-.5c0-2.2-.6-6.1-6-6.1-2.5 0-5 .8-6.9 2l-1.1-3.2c2.2-1.4 5.4-2.3 8.7-2.3 8.1 0 10.1 5.5 10.1 10.8v9.9c0 2.3.1 4.5.4 6.3h-4.3zm-.7-13.4c-5.3-.1-11.2.8-11.2 5.9 0 3.1 2.1 4.6 4.5 4.6 3.4 0 5.6-2.2 6.4-4.4.2-.5.3-1 .3-1.5v-4.6z"/></g></g></a></g><a href="https://ourworldindata.org/grapher/world-health-expenditure-as-share-of-global-gdp" target="_blank"><text font-size="27" x="15" y="36.6" fill="#555"><tspan x="15" y="36.6">World Health Expenditure as Share of Global GDP</tspan></text></a><text font-size="14.4" x="15" y="55.5" fill="#666"><tspan x="15" y="55.52">World Health Expenditure (% of GDP) by Source of Funds</tspan></text></g><g class="StackedArea"><defs><clipPath id="a"><path d="M52.56 0h820v956.2h-820z"/></clipPath></defs><g class="AxisBoxView"><g class="HorizontalAxis" fill="#666" text-anchor="middle" font-size="16.2"><text x="52.6" y="556.5">1995</text><text x="219.8" y="556.5">2000</text><text x="387" y="556.5">2005</text><text x="554.2" y="556.5">2010</text><text x="688" y="556.5">2014</text></g><g class="VerticalAxis" fill="#666" dominant-baseline="middle" text-anchor="end" font-size="16.2"><text x="47.56" y="535.3">0%</text><text x="47.56" y="447.3">2%</text><text x="47.56" y="359.3">4%</text><text x="47.56" y="271.3">6%</text><text x="47.56" y="183.3">8%</text><text x="47.56" y="95.3">10%</text></g><g class="AxisGridLines"><path stroke="#ccc" d="M52.56 535.3h635.43"/><path stroke="#ddd" stroke-dasharray="3,2" d="M52.56 447.3h635.43M52.56 359.3h635.43M52.56 271.3h635.43M52.56 183.3h635.43M52.56 95.3h635.43"/></g><g class="AxisGridLines" stroke="#ddd" stroke-dasharray="3,2"><path d="M52.6 535.3V78.4M219.8 535.3V78.4M387 535.3V78.4M554.2 535.3V78.4"/></g></g><g clip-path="url(#a)"><g class="HeightedLegend clickable"><g class="legendMark"><path fill="#34983f" d="M692.99 229.25h10v2.5h-10z"/><text font-size="14.4" x="708" y="219.3" fill="#333"><tspan x="707.99" y="219.32">World - Health</tspan><tspan x="707.99" y="235.16">expenditure, public</tspan><tspan x="707.99" y="251">(% of GDP)</tspan></text></g><g class="legendMark"><path fill="#3360a9" d="M692.99 447.45h10v2.5h-10z"/><text font-size="14.4" x="708" y="437.5" fill="#333"><tspan x="707.99" y="437.52">World - Health</tspan><tspan x="707.99" y="453.36">expenditure, private</tspan><tspan x="707.99" y="469.2">(% of GDP)</tspan></text></g></g><g class="Areas"><path d="M52.6 393.6l33.4-3.9 33.4-6.6 33.5-8.4 33.4-2.6 33.5-3.3 33.4-8.4 33.5-7.1 33.4-.6 33.5 4.8 33.4-.4 33.4 3.1 33.5 4.2 33.4 2.5 33.5-10.6 33.4 5.4 33.5 4.5 33.4-2.5 33.4-.1 33.5-1.4v173.1H52.55" fill="#3360a9" fill-opacity=".7" class="World_1-area"/><path d="M52.6 161l33.4-2.2 33.4-4.4 33.5-9.7 33.4-4.7 33.5-1 33.4-18.2 33.5-15.3 33.4-6.4 33.5 5.2 33.4.5 33.4 4.6 33.5 6.5 33.4-3.2 33.5-34.3 33.4 16.2 33.5 8.8 33.4-.9 33.4.8 33.5-4.5v263.4l-33.5 1.4-33.4.1-33.4 2.5-33.5-4.5-33.4-5.4-33.5 10.6-33.4-2.5-33.5-4.2-33.4-3.1-33.4.4-33.5-4.8-33.4.6-33.5 7.1-33.4 8.4-33.5 3.3-33.4 2.6-33.5 8.4-33.4 6.6-33.4 3.9" fill="#34983f" fill-opacity=".7" class="World_0-area"/><path stroke-linecap="round" d="M52.6 393.6l33.4-3.9 33.4-6.6 33.5-8.4 33.4-2.6 33.5-3.3 33.4-8.4 33.5-7.1 33.4-.6 33.5 4.8 33.4-.4 33.4 3.1 33.5 4.2 33.4 2.5 33.5-10.6 33.4 5.4 33.5 4.5 33.4-2.5 33.4-.1 33.5-1.4" stroke="#2B508D" stroke-opacity=".7" stroke-width=".5" fill="none" class="World_1-border"/><path stroke-linecap="round" d="M52.6 161l33.4-2.2 33.4-4.4 33.5-9.7 33.4-4.7 33.5-1 33.4-18.2 33.5-15.3 33.4-6.4 33.5 5.2 33.4.5 33.4 4.6 33.5 6.5 33.4-3.2 33.5-34.3 33.4 16.2 33.5 8.8 33.4-.9 33.4.8 33.5-4.5" stroke="#2C7F35" stroke-opacity=".7" stroke-width=".5" fill="none" class="World_0-border"/></g></g></g><g class="SourcesFooter" fill="#777"><g class="clickable" fill="#777"><text font-size="12.6" x="15" y="581.6"><tspan x="15" y="581.58">Source: World Bank – WDI</tspan></text></g><text font-size="12.6" x="528.1" y="581.6"><tspan x="528.06" y="581.58"><a target="_blank" href="https://ourworldindata.org/financing-healthcare/" fill="#777">OurWorldInData.org/financing-healthcare/</a> • <a href="http://creativecommons.org/licenses/by-sa/4.0/deed.en_US" target="_blank" fill="#777">CC BY-SA</a></tspan></text></g></g></svg>

<svg xmlns="http://www.w3.org/2000/svg" version="1.1" style="font-family: 'Helvetica Neue', Helvetica, Arial, sans-serif; font-size: 18px; background-color: white; text-rendering: optimizeLegibility; -webkit-font-smoothing: antialiased;" width="850" height="600"><g class="ChartTab"><g class="HeaderView"><g opacity="0.8" transform="translate(770, 15) scale(0.31)"><a xmlns:xlink="http://www.w3.org/1999/xlink" xlink:href="https://ourworldindata.org" target="_blank"><g><rect x="0" y="0" fill="#1B2543" width="211.2" height="130.1"/><rect x="0" y="112.2" fill="#E63912" width="211.2" height="17.9"/><g><rect x="1.2" y="12.3" fill="none" width="210.2" height="99.2"/><path fill="#FFFFFF" d="M37.8,32.2c0,12.7-7.7,19.4-17.1,19.4c-9.7,0-16.6-7.5-16.6-18.7c0-11.7,7.3-19.3,17.1-19.3 C31.3,13.7,37.8,21.3,37.8,32.2z M9.2,32.8c0,7.9,4.3,14.9,11.8,14.9c7.5,0,11.8-6.9,11.8-15.3c0-7.3-3.8-14.9-11.8-14.9 C13.1,17.5,9.2,24.8,9.2,32.8z"/><path fill="#FFFFFF" d="M62.7,43.8c0,2.7,0.1,5.1,0.2,7.2h-4.3l-0.3-4.3h-0.1c-1.3,2.1-4,4.9-8.8,4.9c-4.2,0-9.1-2.3-9.1-11.6 V24.6h4.8v14.6c0,5,1.5,8.4,5.9,8.4c3.2,0,5.5-2.2,6.3-4.4c0.3-0.7,0.4-1.6,0.4-2.5V24.6h4.8V43.8z"/><path fill="#FFFFFF" d="M67.3,32.8c0-3.1-0.1-5.8-0.2-8.2h4.2l0.2,5.2h0.2c1.2-3.5,4.1-5.8,7.3-5.8c0.5,0,0.9,0.1,1.4,0.2v4.5 c-0.5-0.1-1-0.2-1.6-0.2c-3.4,0-5.8,2.6-6.5,6.2c-0.1,0.7-0.2,1.4-0.2,2.2V51h-4.8V32.8z"/><path fill="#FFFFFF" d="M95.4,51l-9.4-36.8h5l4.4,18.6c1.1,4.6,2.1,9.2,2.7,12.7h0.1c0.6-3.7,1.8-8,3-12.8l4.9-18.5h5l4.5,18.7 c1,4.4,2,8.7,2.6,12.6h0.1c0.8-4,1.8-8.1,3-12.7l4.9-18.5h4.9L120.6,51h-5L111,31.9c-1.1-4.7-1.9-8.3-2.4-12h-0.1 c-0.7,3.7-1.5,7.3-2.8,12L100.4,51H95.4z"/><path fill="#FFFFFF" d="M154.9,37.6c0,9.8-6.8,14-13.2,14c-7.2,0-12.7-5.2-12.7-13.6c0-8.8,5.8-14,13.1-14 C149.8,24,154.9,29.5,154.9,37.6z M133.9,37.9c0,5.8,3.3,10.1,8,10.1c4.6,0,8-4.3,8-10.3c0-4.5-2.2-10.1-7.9-10.1 C136.3,27.6,133.9,32.8,133.9,37.9z"/><path fill="#FFFFFF" d="M158.2,32.8c0-3.1-0.1-5.8-0.2-8.2h4.2l0.2,5.2h0.2c1.2-3.5,4.1-5.8,7.3-5.8c0.5,0,0.9,0.1,1.4,0.2v4.5 c-0.5-0.1-1-0.2-1.6-0.2c-3.4,0-5.8,2.6-6.5,6.2c-0.1,0.7-0.2,1.4-0.2,2.2V51h-4.8V32.8z"/><path fill="#FFFFFF" d="M173.5,12.3h4.8V51h-4.8V12.3z"/><path fill="#FFFFFF" d="M206.5,12.3v31.9c0,2.3,0.1,5,0.2,6.8h-4.3l-0.2-4.6H202c-1.5,2.9-4.7,5.2-9,5.2 c-6.4,0-11.3-5.4-11.3-13.4c-0.1-8.8,5.4-14.2,11.9-14.2c4,0,6.8,1.9,8,4h0.1V12.3H206.5z M201.7,35.4c0-0.6-0.1-1.4-0.2-2 c-0.7-3.1-3.3-5.6-6.9-5.6c-5,0-7.9,4.4-7.9,10.2c0,5.3,2.6,9.8,7.8,9.8c3.2,0,6.2-2.1,7.1-5.7c0.2-0.7,0.2-1.3,0.2-2.1V35.4z"/><path fill="#FFFFFF" d="M42.8,64c0.1,1.6-1.1,2.9-3.1,2.9c-1.7,0-2.9-1.3-2.9-2.9c0-1.7,1.3-3,3-3C41.7,61,42.8,62.3,42.8,64z M37.4,97.8V71.4h4.8v26.4H37.4z"/><path fill="#FFFFFF" d="M47.5,78.6c0-2.7-0.1-5-0.2-7.1h4.3l0.3,4.4h0.1c1.3-2.5,4.4-5,8.8-5c3.7,0,9.4,2.2,9.4,11.2v15.8h-4.8 V82.6c0-4.3-1.6-7.8-6.1-7.8c-3.2,0-5.6,2.2-6.5,4.9c-0.2,0.6-0.3,1.4-0.3,2.2v15.9h-4.8V78.6z"/><path fill="#FFFFFF" d="M84,61.6c2.9-0.4,6.3-0.8,10.1-0.8c6.8,0,11.7,1.6,14.9,4.6c3.3,3,5.2,7.3,5.2,13.2c0,6-1.9,10.9-5.3,14.3 c-3.4,3.4-9.1,5.3-16.3,5.3c-3.4,0-6.2-0.2-8.6-0.4V61.6z M88.8,94.1c1.2,0.2,3,0.3,4.8,0.3c10.2,0,15.7-5.7,15.7-15.6 c0.1-8.7-4.9-14.2-14.9-14.2c-2.5,0-4.3,0.2-5.6,0.5V94.1z"/><path fill="#FFFFFF" d="M132.1,97.8l-0.4-3.3h-0.2c-1.5,2.1-4.3,3.9-8.1,3.9c-5.4,0-8.1-3.8-8.1-7.6c0-6.4,5.7-9.9,15.9-9.8v-0.5 c0-2.2-0.6-6.1-6-6.1c-2.5,0-5,0.8-6.9,2l-1.1-3.2c2.2-1.4,5.4-2.3,8.7-2.3c8.1,0,10.1,5.5,10.1,10.8v9.9c0,2.3,0.1,4.5,0.4,6.3 H132.1z M131.4,84.4c-5.3-0.1-11.2,0.8-11.2,5.9c0,3.1,2.1,4.6,4.5,4.6c3.4,0,5.6-2.2,6.4-4.4c0.2-0.5,0.3-1,0.3-1.5V84.4z"/><path fill="#FFFFFF" d="M146.6,63.9v7.6h6.9v3.7h-6.9v14.2c0,3.3,0.9,5.1,3.6,5.1c1.3,0,2.2-0.2,2.8-0.3l0.2,3.6 c-0.9,0.4-2.4,0.7-4.3,0.7c-2.2,0-4-0.7-5.2-2c-1.4-1.4-1.9-3.8-1.9-6.9V75.1h-4.1v-3.7h4.1v-6.3L146.6,63.9z"/><path fill="#FFFFFF" d="M171.4,97.8l-0.4-3.3h-0.2c-1.5,2.1-4.3,3.9-8.1,3.9c-5.4,0-8.1-3.8-8.1-7.6c0-6.4,5.7-9.9,15.9-9.8v-0.5 c0-2.2-0.6-6.1-6-6.1c-2.5,0-5,0.8-6.9,2l-1.1-3.2c2.2-1.4,5.4-2.3,8.7-2.3c8.1,0,10.1,5.5,10.1,10.8v9.9c0,2.3,0.1,4.5,0.4,6.3 H171.4z M170.7,84.4c-5.3-0.1-11.2,0.8-11.2,5.9c0,3.1,2.1,4.6,4.5,4.6c3.4,0,5.6-2.2,6.4-4.4c0.2-0.5,0.3-1,0.3-1.5V84.4z"/></g></g></a></g><a href="https://ourworldindata.org/grapher/world-health-expenditure-as-share-of-global-gdp" target="_blank"><text font-size="27.00" x="15.0" y="36.6" fill="#555"><tspan x="15" y="36.6">World Health Expenditure as Share of Global GDP</tspan></text></a><text font-size="14.40" x="15.0" y="55.5" fill="#666"><tspan x="15" y="55.519999999999996">World Health Expenditure (% of GDP) by Source of Funds</tspan></text></g><g class="StackedArea"><defs><clipPath id="boundsClip-462"><rect x="52.562" y="0" width="820" height="956.2"></rect></clipPath></defs><g class="AxisBoxView"><g class="HorizontalAxis"><text x="52.6" y="556.5" fill="#666" text-anchor="middle" font-size="16.2">1995</text><text x="219.8" y="556.5" fill="#666" text-anchor="middle" font-size="16.2">2000</text><text x="387" y="556.5" fill="#666" text-anchor="middle" font-size="16.2">2005</text><text x="554.2" y="556.5" fill="#666" text-anchor="middle" font-size="16.2">2010</text><text x="688" y="556.5" fill="#666" text-anchor="middle" font-size="16.2">2014</text></g><g class="VerticalAxis"><text x="47.56" y="535.3" fill="#666" dominant-baseline="middle" text-anchor="end" font-size="16.2">0%</text><text x="47.56" y="447.3" fill="#666" dominant-baseline="middle" text-anchor="end" font-size="16.2">2%</text><text x="47.56" y="359.3" fill="#666" dominant-baseline="middle" text-anchor="end" font-size="16.2">4%</text><text x="47.56" y="271.3" fill="#666" dominant-baseline="middle" text-anchor="end" font-size="16.2">6%</text><text x="47.56" y="183.3" fill="#666" dominant-baseline="middle" text-anchor="end" font-size="16.2">8%</text><text x="47.56" y="95.3" fill="#666" dominant-baseline="middle" text-anchor="end" font-size="16.2">10%</text></g><g class="AxisGridLines"><line x1="52.56" y1="535.3" x2="687.99" y2="535.3" stroke="#ccc"></line><line x1="52.56" y1="447.3" x2="687.99" y2="447.3" stroke="#ddd" stroke-dasharray="3,2"></line><line x1="52.56" y1="359.3" x2="687.99" y2="359.3" stroke="#ddd" stroke-dasharray="3,2"></line><line x1="52.56" y1="271.3" x2="687.99" y2="271.3" stroke="#ddd" stroke-dasharray="3,2"></line><line x1="52.56" y1="183.3" x2="687.99" y2="183.3" stroke="#ddd" stroke-dasharray="3,2"></line><line x1="52.56" y1="95.3" x2="687.99" y2="95.3" stroke="#ddd" stroke-dasharray="3,2"></line></g><g class="AxisGridLines"><line x1="52.6" y1="535.30" x2="52.6" y2="78.40" stroke="#ddd" stroke-dasharray="3,2"></line><line x1="219.8" y1="535.30" x2="219.8" y2="78.40" stroke="#ddd" stroke-dasharray="3,2"></line><line x1="387" y1="535.30" x2="387" y2="78.40" stroke="#ddd" stroke-dasharray="3,2"></line><line x1="554.2" y1="535.30" x2="554.2" y2="78.40" stroke="#ddd" stroke-dasharray="3,2"></line></g></g><g clip-path="url(#boundsClip-462)"><g class="HeightedLegend clickable"><g class="legendMark"><rect x="692.992" y="207.8" width="136.392" height="45.400000000000006" fill="#fff" opacity="0"></rect><rect x="692.992" y="229.25" width="10" height="2.5" fill="#34983f"></rect><text font-size="14.40" x="708.0" y="219.3" fill="#333"><tspan x="707.992" y="219.32000000000002">World - Health</tspan><tspan x="707.992" y="235.16000000000003">expenditure, public</tspan><tspan x="707.992" y="251.00000000000003">(% of GDP)</tspan></text></g><g class="legendMark"><rect x="692.992" y="426" width="142.008" height="45.400000000000006" fill="#fff" opacity="0"></rect><rect x="692.992" y="447.45" width="10" height="2.5" fill="#3360a9"></rect><text font-size="14.40" x="708.0" y="437.5" fill="#333"><tspan x="707.992" y="437.52">World - Health</tspan><tspan x="707.992" y="453.35999999999996">expenditure, private</tspan><tspan x="707.992" y="469.2">(% of GDP)</tspan></text></g></g><g class="Areas"><rect x="52.562" y="78.4" width="635.43" height="456.9000000000001" opacity="0" fill="rgba(255,255,255,0)"></rect><path stroke-linecap="round" d="M52.6 393.6L86 389.7L119.4 383.1L152.9 374.7L186.3 372.1L219.8 368.8L253.2 360.4L286.7 353.3L320.1 352.7L353.6 357.5L387 357.1L420.4 360.2L453.9 364.4L487.3 366.9L520.8 356.3L554.2 361.7L587.7 366.2L621.1 363.7L654.5 363.6L688 362.2L687.992 535.3000000000001L52.562 535.3000000000001" fill="#3360a9" fill-opacity="0.7" class="World_1-area"></path><path stroke-linecap="round" d="M52.6 161L86 158.8L119.4 154.4L152.9 144.7L186.3 140L219.8 139L253.2 120.8L286.7 105.5L320.1 99.1L353.6 104.3L387 104.8L420.4 109.4L453.9 115.9L487.3 112.7L520.8 78.4L554.2 94.6L587.7 103.4L621.1 102.5L654.5 103.3L688 98.8L688 362.2L654.5 363.6L621.1 363.7L587.7 366.2L554.2 361.7L520.8 356.3L487.3 366.9L453.9 364.4L420.4 360.2L387 357.1L353.6 357.5L320.1 352.7L286.7 353.3L253.2 360.4L219.8 368.8L186.3 372.1L152.9 374.7L119.4 383.1L86 389.7L52.6 393.6" fill="#34983f" fill-opacity="0.7" class="World_0-area"></path><path stroke-linecap="round" d="M52.6 393.6L86 389.7L119.4 383.1L152.9 374.7L186.3 372.1L219.8 368.8L253.2 360.4L286.7 353.3L320.1 352.7L353.6 357.5L387 357.1L420.4 360.2L453.9 364.4L487.3 366.9L520.8 356.3L554.2 361.7L587.7 366.2L621.1 363.7L654.5 363.6L688 362.2" stroke="rgb(43, 80, 141)" stroke-opacity="0.7" stroke-width="0.5" fill="none" class="World_1-border"></path><path stroke-linecap="round" d="M52.6 161L86 158.8L119.4 154.4L152.9 144.7L186.3 140L219.8 139L253.2 120.8L286.7 105.5L320.1 99.1L353.6 104.3L387 104.8L420.4 109.4L453.9 115.9L487.3 112.7L520.8 78.4L554.2 94.6L587.7 103.4L621.1 102.5L654.5 103.3L688 98.8" stroke="rgb(44, 127, 53)" stroke-opacity="0.7" stroke-width="0.5" fill="none" class="World_0-border"></path></g></g></g><g style="fill: #777;" class="SourcesFooter"><g style="fill: #777;" class="clickable"><text font-size="12.60" x="15.0" y="581.6"><tspan x="15" y="581.58">Source: World Bank – WDI</tspan></text></g><text font-size="12.60" x="528.1" y="581.6"><tspan x="528.0640000000001" y="581.58"><a target='_blank' style='fill: #777;' href='https://ourworldindata.org/financing-healthcare/'>OurWorldInData.org/financing-healthcare/</a> • <a style="fill: #777;" href="http://creativecommons.org/licenses/by-sa/4.0/deed.en_US" target="_blank">CC BY-SA</a></tspan></text></g></g></svg>
